bvspca/static/svg/cat.svg

<?xml version="1.0" encoding="UTF-8" standalone="no"?>
<!-- Created with Inkscape (http://www.inkscape.org/) -->
<svg
   xmlns:svg="http://www.w3.org/2000/svg"
   xmlns="http://www.w3.org/2000/svg"
   version="1.0"
   width="400"
   height="380"
   id="svg2">
  <defs
     id="defs5" />
  <path
     d="M 151.34904,307.20455 L 264.34904,307.20455 C 264.34904,291.14096 263.2021,287.95455 236.59904,287.95455 C 240.84904,275.20455 258.12424,244.35808 267.72404,244.35808 C 276.21707,244.35808 286.34904,244.82592 286.34904,264.20455 C 286.34904,286.20455 323.37171,321.67547 332.34904,307.20455 C 345.72769,285.63897 309.34904,292.21514 309.34904,240.20455 C 309.34904,169.05135 350.87417,179.18071 350.87417,139.20455 C 350.87417,119.20455 345.34904,116.50374 345.34904,102.20455 C 345.34904,83.30695 361.99717,84.403577 358.75805,68.734879 C 356.52061,57.911656 354.76962,49.23199 353.46516,36.143889 C 352.53959,26.857305 352.24452,16.959398 342.59855,17.357382 C 331.26505,17.824992 326.96549,37.77419 309.34904,39.204549 C 291.76851,40.631991 276.77834,24.238028 269.97404,26.579549 C 263.22709,28.901334 265.34904,47.204549 269.34904,60.204549 C 275.63588,80.636771 289.34904,107.20455 264.34904,111.20455 C 239.34904,115.20455 196.34904,119.20455 165.34904,160.20455 C 134.34904,201.20455 135.49342,249.3212 123.34904,264.20455 C 82.590696,314.15529 40.823919,293.64625 40.823919,335.20455 C 40.823919,353.81019 72.349045,367.20455 77.349045,361.20455 C 82.349045,355.20455 34.863764,337.32587 87.995492,316.20455 C 133.38711,298.16014 137.43914,294.47663 151.34904,307.20455 z "
     style="fill:#929292;fill-opacity:1;fill-rule:evenodd;stroke:none;stroke-width:1px;stroke-linecap:butt;stroke-linejoin:miter;stroke-opacity:1"
     id="path1891" />
</svg>

<svg version="1" viewBox="0 0 400 380" xmlns="http://www.w3.org/2000/svg"><path d="M151.35 307.2h113c0-16.064-1.147-19.25-27.75-19.25 4.25-12.75 21.525-43.596 31.125-43.596 8.493 0 18.625.468 18.625 19.846 0 22 37.023 57.471 46 43 13.379-21.566-23-14.989-23-67 0-71.153 41.525-61.024 41.525-101 0-20-5.525-22.701-5.525-37 0-18.898 16.648-17.801 13.409-33.47-2.238-10.823-3.989-19.503-5.293-32.591-.926-9.287-1.22-19.184-10.867-18.787-11.334.468-15.633 20.417-33.25 21.847-17.581 1.427-32.571-14.967-39.375-12.625-6.747 2.322-4.625 20.625-.625 33.625 6.287 20.432 20 47-5 51s-68 8-99 49-29.856 89.117-42 104c-40.758 49.951-82.525 29.442-82.525 71 0 18.606 31.525 32 36.525 26s-42.485-23.879 10.646-45c45.392-18.044 49.444-21.728 63.354-9z" fill="#929292" fill-rule="evenodd"/></svg>
